images/design/rh-icon-download.svg

<svg width="53" height="82" viewBox="0 0 53 82" xmlns="http://www.w3.org/2000/svg"><title>rh-icon-download</title><defs><linearGradient x1="-5.909%" y1="21.276%" x2="105.91%" y2="93.208%" id="a"><stop stop-color="#E6E6E6" offset="0%"/><stop stop-color="#F7F7F7" offset="50%"/><stop stop-color="#C4C4C4" offset="100%"/></linearGradient></defs><g fill="none" fill-rule="evenodd"><path d="M52.19 35.362c-.178-.432-.784-1.436-2.546-1.436-.18 0-.373.01-.615.038l-10.296 1.533V1.087a1 1 0 0 0-1-1H14.66a1 1 0 0 0-1 1v34.41L3.328 33.96C1.124 33.72.4 34.887.203 35.363c-.44 1.063-.026 2.41 1.017 3.446l24.21 29.126a1 1 0 0 0 1.537 0l24.146-29.06c1.105-1.104 1.518-2.45 1.078-3.514zm-2.614 36.58H2.816c-.504 0-.914.447-.914 1v7.5c0 .553.41 1 .915 1h46.76c.504 0 .914-.447.914-1v-7.5c0-.553-.41-1-.914-1z" fill="url(#a)"/><g fill="#231F20"><path d="M26.198 68.295c-.298 0-.58-.132-.77-.36L1.22 38.808C.177 37.77-.236 36.425.203 35.362c.197-.476.92-1.643 3.125-1.403l10.332 1.537V1.087a1 1 0 0 1 1-1h23.074a1 1 0 0 1 1 1v34.41l10.295-1.533c.24-.027.434-.038.614-.038 1.762 0 2.368 1.004 2.547 1.436.44 1.063.027 2.41-1.078 3.514l-24.146 29.06c-.19.228-.47.36-.768.36zM2.75 35.925c-.423 0-.658.105-.698.202-.082.197.066.757.645 1.334L26.2 65.73l23.437-28.2c.64-.646.79-1.206.707-1.402-.05-.123-.447-.248-1.056-.18l-11.405 1.698a1 1 0 0 1-1.148-.99V2.087H15.66v34.57c0 .292-.126.568-.347.758a.992.992 0 0 1-.8.232L3.07 35.943a3.364 3.364 0 0 0-.32-.017zM49.576 81.442H2.816c-.504 0-.914-.447-.914-1v-7.5c0-.553.41-1 .915-1h46.76c.504 0 .914.447.914 1v7.5c0 .553-.41 1-.914 1zm-45.844-2h44.93v-5.5H3.73v5.5z"/></g></g></svg>

<?xml version="1.0" encoding="UTF-8" standalone="no"?>
<svg width="53px" height="82px" viewBox="0 0 53 82" version="1.1" xmlns="http://www.w3.org/2000/svg" xmlns:xlink="http://www.w3.org/1999/xlink" xmlns:sketch="http://www.bohemiancoding.com/sketch/ns">
    <!-- Generator: Sketch 3.3.2 (12043) - http://www.bohemiancoding.com/sketch -->
    <title>rh-icon-download</title>
    <desc>Created with Sketch.</desc>
    <defs>
        <linearGradient x1="-5.90887478%" y1="21.2759969%" x2="105.910192%" y2="93.2077536%" id="linearGradient-1">
            <stop stop-color="#E6E6E6" offset="0%"></stop>
            <stop stop-color="#F7F7F7" offset="50%"></stop>
            <stop stop-color="#C4C4C4" offset="100%"></stop>
        </linearGradient>
    </defs>
    <g id="Page-1" stroke="none" stroke-width="1" fill="none" fill-rule="evenodd" sketch:type="MSPage">
        <g id="rh-icon-download" sketch:type="MSLayerGroup">
            <g id="Group" sketch:type="MSShapeGroup">
                <path d="M52.191,35.362 C52.012,34.93 51.406,33.926 49.644,33.926 C49.463,33.926 49.271,33.937 49.029,33.964 L38.734,35.497 L38.734,1.086 C38.734,0.534 38.287,0.086 37.734,0.086 L14.66,0.086 C14.108,0.086 13.66,0.534 13.66,1.086 L13.66,35.497 L3.328,33.96 C1.124,33.719 0.4,34.887 0.203,35.363 C-0.237,36.426 0.177,37.772 1.22,38.809 L25.429,67.936 C25.619,68.165 25.901,68.296 26.199,68.296 C26.496,68.296 26.778,68.164 26.967,67.936 L51.113,38.877 C52.218,37.772 52.631,36.425 52.191,35.362 L52.191,35.362 Z M49.576,71.942 L2.817,71.942 C2.312,71.942 1.902,72.389 1.902,72.942 L1.902,80.442 C1.902,80.995 2.312,81.442 2.817,81.442 L49.576,81.442 C50.081,81.442 50.491,80.995 50.491,80.442 L50.491,72.942 C50.491,72.389 50.081,71.942 49.576,71.942 L49.576,71.942 Z" id="Shape" fill="url(#linearGradient-1)"></path>
                <g id="Shape" fill="#231F20">
                    <path d="M26.198,68.295 C25.9,68.295 25.619,68.163 25.428,67.935 L1.22,38.808 C0.177,37.771 -0.236,36.425 0.203,35.362 C0.4,34.886 1.124,33.719 3.328,33.959 L13.66,35.497 L13.66,1.086 C13.66,0.534 14.108,0.086 14.66,0.086 L37.734,0.086 C38.287,0.086 38.734,0.534 38.734,1.086 L38.734,35.497 L49.029,33.964 C49.271,33.937 49.464,33.926 49.644,33.926 C51.406,33.926 52.012,34.93 52.191,35.362 C52.63,36.425 52.217,37.772 51.112,38.876 L26.966,67.935 C26.777,68.164 26.495,68.295 26.198,68.295 L26.198,68.295 Z M2.75,35.926 C2.327,35.926 2.092,36.03 2.052,36.127 C1.97,36.324 2.118,36.884 2.697,37.461 L26.199,65.731 L49.637,37.53 C50.278,36.884 50.426,36.324 50.344,36.128 C50.293,36.005 49.897,35.88 49.288,35.948 L37.883,37.646 C37.597,37.69 37.302,37.604 37.082,37.414 C36.862,37.224 36.735,36.948 36.735,36.657 L36.735,2.086 L15.66,2.086 L15.66,36.657 C15.66,36.948 15.534,37.224 15.313,37.414 C15.092,37.604 14.802,37.691 14.512,37.646 L3.07,35.943 C2.98,35.934 2.862,35.926 2.75,35.926 L2.75,35.926 Z"></path>
                    <path d="M49.576,81.442 L2.817,81.442 C2.312,81.442 1.902,80.995 1.902,80.442 L1.902,72.942 C1.902,72.389 2.312,71.942 2.817,71.942 L49.576,71.942 C50.081,71.942 50.491,72.389 50.491,72.942 L50.491,80.442 C50.491,80.995 50.081,81.442 49.576,81.442 L49.576,81.442 Z M3.732,79.442 L48.661,79.442 L48.661,73.942 L3.732,73.942 L3.732,79.442 L3.732,79.442 Z"></path>
                </g>
            </g>
        </g>
    </g>
</svg>
